!! 00010] TT[TB
!! Eigene Aufnahme
!!!OTL: Dakou shao de ershi ke ya Twenty teeth whistling
!!!ARE: Neimeng
!! Ethnic Group: Menggu
!! MM, S. 802
!!!SCT: C0566
!!!YEM: Copyright 1995, estate of Helmut Schaffrath.
**kern
*ICvox
*Ivox
*M2/4
*k[]
*C:
{8g
8e
8e
8g
=1
8.a
16cc
8a
8g}
=2
{8cc
8e
8e
8a
=3
2g}
=4
{8a
8e
8e
8a
=5
8.A
16c
8G
8A}
=6
{16d
8c
16e
16d
16e
8c
=7
2A}
==
!!!AGN: NN
!! Saenger: Chao Lun Batou, der das Buch nur zum Nachschlagen
!!    benutzte und ansonsten auswendig sang. Da er aus dem Osten der
!!    Neimeng kommt, kennt er nicht so viele Lieder des Westens.
!!    Alle Lieder wurden mit erkaelteter, halber Stimme in meinem
!!    Zimmer gesungen. FOTO VORHANDEN (DIAS)  31.3.87
!!    Vereinzelt Verzierungen.
!!    Variante. 2 Strophen
!!!ONB: ESAC (Essen Associative Code) Database: CHINA
!!!AMT: simple duple
!!!AIN: vox
!!!EED: Helmut Schaffrath
!!!EEV: 1.0
*-
